apps/common/mobile/resources/icons/common/icon-table-add-column-right-rtl.svg

<svg width="24" height="24" viewBox="0 0 24 24" xmlns="http://www.w3.org/2000/svg">
<path d="M4.25 3.54297C3.2835 3.54297 2.5 4.32647 2.5 5.29297V14.293C2.5 14.7072 2.83579 15.043 3.25 15.043C3.25008 14.6993 3.2499 14.3069 3.25 13.8535L3.25098 13.8545C3.25098 12.3353 4.4817 11.1042 5.99902 11.1035C7.51781 11.1035 8.75 12.3357 8.75 13.8545V15.043H14.5V18.543H13.25C12.8358 18.543 12.5 18.8788 12.5 19.293C12.5 19.7071 12.8358 20.043 13.25 20.043H20.25C21.2164 20.043 21.9999 19.2594 22 18.293V5.29297C22 4.32647 21.2165 3.54297 20.25 3.54297H4.25ZM20.5 18.293C20.4999 18.431 20.388 18.543 20.25 18.543H16V15.043H20.5V18.293ZM20.5 13.543H16V10.043H20.5V13.543ZM14.5 13.543H10V10.043H14.5V13.543ZM20.25 5.04297C20.3881 5.04297 20.5 5.1549 20.5 5.29297V8.54297H16V5.04297H20.25ZM14.5 8.54297H10V5.04297H14.5V8.54297Z" fill="#444444"/>
<path d="M6 13.1035C5.5859 13.1037 5.25 13.4394 5.25 13.8535L5.24902 17.1035H2C1.58586 17.1036 1.25 17.4394 1.25 17.8535C1.25004 18.2676 1.58589 18.6034 2 18.6035H5.24902L5.25 21.8535C5.25 22.2676 5.5859 22.6034 6 22.6035C6.41418 22.6035 6.75 22.2677 6.75 21.8535L6.74902 18.6035H10C10.4142 18.6035 10.75 18.2677 10.75 17.8535C10.75 17.4393 10.4142 17.1035 10 17.1035H6.74902L6.75 13.8535C6.75 13.4393 6.41418 13.1036 6 13.1035Z" fill="#446ECA"/>
</svg>

<svg xmlns="http://www.w3.org/2000/svg" width="24" height="24" fill="none" viewBox="0 0 24 24">
  <g class="icon-table-add-column-right-rtl">
    <path fill="#446ECA" d="M5.25 13.853a.75.75 0 0 1 1.5 0v3.25H10a.75.75 0 1 1 0 1.5H6.75v3.25a.75.75 0 1 1-1.5 0v-3.25H2a.75.75 0 0 1 0-1.5h3.25v-3.25Z" class="icon-fill-blue-primary"/>
    <path fill="#444" fill-rule="evenodd" d="M4.25 3.543a1.75 1.75 0 0 0-1.75 1.75v9c0 .414.336.75.75.75v-1.19l.001.002a2.75 2.75 0 1 1 5.499 0v1.188h5.75v3.5h-1.25a.75.75 0 0 0 0 1.5h7a1.75 1.75 0 0 0 1.75-1.75v-13a1.75 1.75 0 0 0-1.75-1.75h-16Zm16.25 14.75a.25.25 0 0 1-.25.25H16v-3.5h4.5v3.25Zm0-4.75H16v-3.5h4.5v3.5Zm-6 0H10v-3.5h4.5v3.5Zm5.75-8.5a.25.25 0 0 1 .25.25v3.25H16v-3.5h4.25Zm-5.75 3.5H10v-3.5h4.5v3.5Z" class="icon-fill-gray-primary" clip-rule="evenodd"/>
  </g>
</svg>
